!!!OTL: ZU FRANKFURT AN DER ODER
!!!ARE: Europa, Mitteleuropa, Deutschland, Hessen, Limburg, Nauheim
!!!SCT: E1618
!!!YEM: Copyright 1995, estate of Helmut Schaffrath.
**kern
*ICvox
*Ivox
*M6/8
*k[b-e-a-]
*E-:
{8B-
=1
4e-
8e-
8e-
8d
8e-
=2
8f
8f
4.r}
{8d
=3
4f
8f
8f
8g
8a-
=4
4.b-
4r}
{8g
=5
4b-
8b-
4b-
8b-
=6
8cc
8cc
4.r}
{8cc
=7
8.cc
16cc
8cc
8cc
8b-
8a-
=8
4.g
4r}
{8b-
=9
4b-
16a-
16a-
8f
8g
8a-
=10
8cc
8b-
8b-
8b-
8a-}
{8g
=11
4b-
8b-
4b-
8ee-
=12
8cc
8cc
4.r}
{8cc
=13
8.cc
16cc
8cc
8cc
8b-
8a-
=14
4.g
4r}
==
!!!AGN: Staende -, Handwerker -, Gesellen - Lied
!!!ONB: ESAC (Essen Associative Code) Database: ERK3
!!!AMT: compound duple
!!!AIN: vox
!!!EED: Helmut Schaffrath
!!!EEV: 1.0
*-
